X: 2352
T: BELLE OF CLAREMONT
R: Hornpipe.
%R: hornpipe, reel
B: James Kerr "Merry Melodies" v.2 p.39 #352
Z: 2016 John Chambers <jc:trillian.mit.edu>
M: C
L: 1/8
K: D
|:\
(3DDD D2 DFAF | dFAF dFAF |\
[1,3 (3EEE E2 EGBE | eGBG eGFE :|\
[2,4 Egfg fedc | [d2F2][d2F2] [d2F2]z2 :|
|:\
(fd)d2 fdad | fddf a2 \
[1,3 (ed) | (cA)A2 cAeA | cAAc egfe :|\
[2,4 A2 | Bbag fedc | [d2F2][d2F2] [d2F2]z2 :|
